epam-assets/icon-sources/18/add-above.svg

<svg width="18" height="18" viewBox="0 0 18 18" fill="none" xmlns="http://www.w3.org/2000/svg">
<g id="18/add-above">
<g id="icon">
<path d="M13.5303 6.46978L8.99993 1.93945L4.4696 6.46978L5.53026 7.53044L8.99993 4.06077L12.4696 7.53044L13.5303 6.46978Z" fill="#6C6F80"/>
<path d="M8.25 8.25H9.75V11.25H12.75V12.75H9.75V15.75H8.25V12.75H5.25V11.25H8.25V8.25Z" fill="#6C6F80"/>
</g>
</g>
</svg>

<svg xmlns="http://www.w3.org/2000/svg" width="18" height="18" fill="none" viewBox="0 0 18 18">
  <path fill="#6C6F80" d="M13.53 6.47 9 1.94 4.47 6.47l1.06 1.06L9 4.06l3.47 3.47 1.06-1.06ZM8.25 8.25h1.5v3h3v1.5h-3v3h-1.5v-3h-3v-1.5h3v-3Z"/>
</svg>
